assets/Man getting massage/Light/Flat/man_getting_massage_flat_light.svg

<svg width="32" height="32" viewBox="0 0 32 32" fill="none" xmlns="http://www.w3.org/2000/svg">
<path d="M23 14.45C23 15.4164 22.2165 16.2 21.25 16.2C20.2835 16.2 19.5 15.4164 19.5 14.45C19.5 13.4835 20.2835 12.7 21.25 12.7C22.2165 12.7 23 13.4835 23 14.45Z" fill="#F4C6AD"/>
<path d="M12.5 14.5C12.5 15.4664 11.7165 16.25 10.75 16.25C9.7835 16.25 9 15.4664 9 14.5C9 13.5335 9.7835 12.75 10.75 12.75C11.7165 12.75 12.5 13.5335 12.5 14.5Z" fill="#F4C6AD"/>
<path d="M26.5 30.0001C25.664 25.1101 21.2827 21.3701 15.995 21.3701C10.7072 21.3701 6.33597 25.1101 5.5 30.0001H26.5Z" fill="#00A6ED"/>
<path d="M16 24C14.896 24 14 23.0138 14 21.7987V19.2013C14 17.9862 14.896 17 16 17C17.104 17 18 17.9862 18 19.2013V21.7987C18 23.0138 17.104 24 16 24Z" fill="#F4C6AD"/>
<path d="M15.5134 6.53003C12.4657 6.53003 10.0472 9.16003 10.2635 12.26L10.696 18.48C10.8828 20.43 12.3968 21.82 14.2353 21.82H17.7647C19.6032 21.82 21.1172 20.43 21.304 18.48L21.7365 12.26C21.9528 9.16003 19.5343 6.53003 16.4866 6.53003H15.5134Z" fill="#FFD7C2"/>
<path d="M11.6226 12.9437C11.7426 13.1037 11.9226 13.1837 12.1126 13.1837C12.2426 13.1837 12.3726 13.1437 12.4726 13.0737C12.4736 13.0731 12.4751 13.072 12.4772 13.0706C12.5392 13.0277 13.0895 12.647 13.8926 12.7437C14.2226 12.7737 14.5326 12.5437 14.5726 12.2037C14.6126 11.8737 14.3726 11.5637 14.0326 11.5237C12.7053 11.3641 11.7764 12.0609 11.7329 12.0935C11.4729 12.2935 11.4226 12.6737 11.6226 12.9437Z" fill="#212121"/>
<path d="M19.3926 13.0637C19.5026 13.1437 19.6326 13.1837 19.7626 13.1837C19.9526 13.1837 20.1326 13.1037 20.2426 12.9537C20.4526 12.6837 20.4026 12.3037 20.1326 12.0937L20.1316 12.093C20.0792 12.0536 19.1628 11.3649 17.8326 11.5237C17.4926 11.5637 17.2526 11.8637 17.2926 12.2037C17.3326 12.5437 17.6326 12.7837 17.9726 12.7437C18.7321 12.6431 19.2572 12.9779 19.3715 13.0508C19.3821 13.0575 19.3892 13.062 19.3926 13.0637Z" fill="#212121"/>
<path d="M15.5923 14.3163L15.0262 16.2163C14.9111 16.6063 15.1893 16.9963 15.5827 16.9963H16.4173C16.8107 16.9963 17.0889 16.5963 16.9738 16.2063L16.4077 14.3063C16.283 13.8963 15.717 13.8963 15.5923 14.3163Z" fill="#E5AF93"/>
<path d="M16.01 18.0199C15.3815 18.0199 14.7844 17.8799 14.2816 17.6199C14.114 17.5299 13.9254 17.7199 14.0302 17.8699C14.4492 18.4899 15.172 18.8899 15.9995 18.8899C16.827 18.8899 17.5498 18.4799 17.9688 17.8699C18.0735 17.7199 17.8955 17.5299 17.7174 17.6199C17.2251 17.8699 16.6385 18.0199 16.01 18.0199Z" fill="#990838"/>
<path d="M14.4088 14.14C14.4671 14.08 14.5449 14.04 14.6227 14.04C14.8657 14.04 14.9921 14.32 14.8366 14.51C14.5255 14.88 14.0685 15.11 13.5727 15.11C13.0769 15.11 12.6297 14.88 12.3186 14.51C12.1631 14.32 12.2894 14.04 12.5228 14.04C12.6103 14.04 12.6783 14.08 12.7367 14.14C12.9408 14.38 13.2422 14.53 13.5727 14.53C13.9033 14.53 14.2047 14.38 14.4088 14.14Z" fill="#212121"/>
<path d="M19.26 14.14C19.3183 14.08 19.3961 14.04 19.4739 14.04C19.7072 14.04 19.8336 14.32 19.6878 14.51C19.3767 14.88 18.9197 15.11 18.4239 15.11C17.9281 15.11 17.4809 14.88 17.1698 14.51C17.0143 14.32 17.1406 14.04 17.374 14.04C17.4615 14.04 17.5295 14.08 17.5878 14.14C17.792 14.38 18.0934 14.53 18.4239 14.53C18.7545 14.53 19.0558 14.38 19.26 14.14Z" fill="#212121"/>
<path d="M21.8102 7.63003L21.3447 7.39003C21.008 7.22003 20.7109 7.00003 20.4434 6.74003L19.5322 5.82003C18.8488 5.13003 17.8287 4.90003 16.9175 5.22003C16.3232 5.43003 15.6794 5.43003 15.0852 5.22003C14.2829 4.82003 13.3222 4.98003 12.6784 5.62003L11.5592 6.74003C11.3017 7.01003 10.9947 7.23003 10.6678 7.39003L10.2023 7.63003C9.34066 8.06003 8.86525 9.02003 9.03363 9.98003L9.6576 13.42C9.71703 13.76 10.0142 14.01 10.3509 14.02C10.3509 14.02 10.2816 13.04 10.242 12.41C10.2321 12.1 10.1231 11.79 10.3608 11.57L10.5589 11.39C10.8362 11.14 10.5589 10.69 10.5589 10.31L11.2324 9.43003C11.2324 9.16003 11.4206 8.92003 11.6781 8.85003C12.3813 8.67003 13.8967 8.37003 15.9964 8.37003C18.0961 8.37003 19.6115 8.67003 20.3147 8.85003C20.5821 8.92003 20.7604 9.16003 20.7604 9.43003L22.1668 10.44C22.1668 10.82 21.7227 11.14 22 11.39L21.4141 11.59C21.6518 11.81 21.7805 12.12 21.7607 12.44C21.7211 13.07 21.6518 14.04 21.6518 14.04C21.9885 14.02 22.2757 13.77 22.3352 13.44L22.9591 10C23.1473 9.02003 22.6719 8.06003 21.8102 7.63003Z" fill="#212121"/>
<path d="M11.8655 2H8.5L8.50999 13.61C8.50999 14.23 8.98935 14.76 9.60852 14.78C10.2577 14.8 10.7869 14.28 10.7869 13.64V10.45C10.7869 9.73 11.6558 9.37 12.1651 9.88L12.8043 10.53C13.2636 10.98 14.0027 10.97 14.4421 10.49C14.8615 10.04 14.8315 9.33 14.3921 8.89L12.5746 7.07C12.1252 6.61 11.8655 6 11.8655 5.35V2Z" fill="#F1B99B"/>
<path d="M20.1345 2H23.5L23.49 13.6C23.49 14.22 23.0107 14.75 22.3915 14.77C21.7423 14.79 21.2131 14.27 21.2131 13.63V10.44C21.2131 9.72 20.3542 9.36 19.8449 9.87L19.1957 10.52C18.7463 10.98 17.9973 10.97 17.5579 10.49C17.1385 10.04 17.1684 9.33 17.6079 8.89L19.4254 7.07C19.8748 6.61 20.1345 6 20.1345 5.35V2Z" fill="#F1B99B"/>
</svg>

<svg xmlns="http://www.w3.org/2000/svg" width="32" height="32" fill="none"><path fill="#F4C6AD" d="M23 14.45a1.75 1.75 0 1 1-3.5 0 1.75 1.75 0 0 1 3.5 0ZM12.5 14.5a1.75 1.75 0 1 1-3.5 0 1.75 1.75 0 0 1 3.5 0Z"/><path fill="#00A6ED" d="M26.5 30c-.836-4.89-5.217-8.63-10.505-8.63-5.288 0-9.659 3.74-10.495 8.63h21Z"/><path fill="#F4C6AD" d="M16 24c-1.104 0-2-.986-2-2.201V19.2c0-1.215.896-2.201 2-2.201s2 .986 2 2.201V21.8C18 23.014 17.104 24 16 24Z"/><path fill="#FFD7C2" d="M15.513 6.53c-3.047 0-5.466 2.63-5.25 5.73l.433 6.22c.187 1.95 1.7 3.34 3.54 3.34h3.529c1.838 0 3.352-1.39 3.539-3.34l.433-6.22c.216-3.1-2.203-5.73-5.25-5.73h-.974Z"/><path fill="#212121" d="M11.623 12.944c.12.16.3.24.49.24.13 0 .26-.04.36-.11l.004-.003a2.1 2.1 0 0 1 1.416-.327c.33.03.64-.2.68-.54.04-.33-.2-.64-.54-.68-1.328-.16-2.257.537-2.3.57-.26.2-.31.58-.11.85ZM19.393 13.064c.11.08.24.12.37.12.19 0 .37-.08.48-.23.21-.27.16-.65-.11-.86l-.001-.001c-.053-.04-.97-.728-2.3-.57a.61.61 0 0 0-.54.68c.04.34.34.58.68.54.76-.1 1.285.235 1.4.308l.02.013Z"/><path fill="#E5AF93" d="m15.592 14.316-.566 1.9c-.115.39.163.78.557.78h.834c.394 0 .672-.4.557-.79l-.566-1.9a.423.423 0 0 0-.816.01Z"/><path fill="#990838" d="M16.01 18.02c-.629 0-1.226-.14-1.728-.4-.168-.09-.357.1-.252.25A2.357 2.357 0 0 0 16 18.89c.827 0 1.55-.41 1.969-1.02.104-.15-.074-.34-.252-.25-.492.25-1.078.4-1.707.4Z"/><path fill="#212121" d="M14.409 14.14c.058-.06.136-.1.214-.1.243 0 .37.28.214.47-.312.37-.768.6-1.264.6s-.943-.23-1.254-.6c-.156-.19-.03-.47.204-.47.087 0 .155.04.214.1.204.24.505.39.836.39.33 0 .632-.15.836-.39ZM19.26 14.14c.058-.06.136-.1.214-.1.233 0 .36.28.214.47-.311.37-.768.6-1.264.6s-.943-.23-1.254-.6c-.156-.19-.03-.47.204-.47a.29.29 0 0 1 .214.1c.204.24.505.39.836.39.33 0 .632-.15.836-.39ZM21.81 7.63l-.465-.24a3.649 3.649 0 0 1-.902-.65l-.91-.92a2.511 2.511 0 0 0-2.616-.6c-.594.21-1.238.21-1.832 0a2.084 2.084 0 0 0-2.407.4L11.56 6.74a3.15 3.15 0 0 1-.891.65l-.466.24a2.2 2.2 0 0 0-1.168 2.35l.624 3.44c.059.34.356.59.693.6 0 0-.07-.98-.109-1.61-.01-.31-.119-.62.119-.84l.198-.18c.277-.25 0-.7 0-1.08l.673-.88c0-.27.189-.51.446-.58.703-.18 2.219-.48 4.318-.48 2.1 0 3.615.3 4.319.48.267.07.445.31.445.58l1.407 1.01c0 .38-.444.7-.167.95l-.586.2c.238.22.366.53.347.85-.04.63-.11 1.6-.11 1.6a.74.74 0 0 0 .684-.6L22.96 10a2.174 2.174 0 0 0-1.149-2.37Z"/><path fill="#F1B99B" d="M11.866 2H8.5l.01 11.61c0 .62.48 1.15 1.099 1.17.649.02 1.178-.5 1.178-1.14v-3.19c0-.72.869-1.08 1.378-.57l.64.65c.459.45 1.198.44 1.637-.04.42-.45.39-1.16-.05-1.6l-1.817-1.82c-.45-.46-.71-1.07-.71-1.72V2ZM20.134 2H23.5l-.01 11.6c0 .62-.48 1.15-1.098 1.17-.65.02-1.179-.5-1.179-1.14v-3.19a.8.8 0 0 0-1.368-.57l-.65.65c-.449.46-1.198.45-1.637-.03-.42-.45-.39-1.16.05-1.6l1.817-1.82c.45-.46.71-1.07.71-1.72V2Z"/></svg>
